resources/haticons/SVG/linkedin2.svg

<!-- Generated by IcoMoon.io -->
<svg version="1.1" xmlns="http://www.w3.org/2000/svg" width="24" height="24" viewBox="0 0 24 24">
<title>linkedin2</title>
<path d="M9 9h4.151v2.128h0.059c0.577-1.036 1.991-2.128 4.098-2.128 4.382 0 5.192 2.728 5.192 6.275v7.225h-4.327v-6.405c0-1.528-0.031-3.493-2.251-3.493-2.253 0-2.597 1.664-2.597 3.382v6.516h-4.325v-13.5z"></path>
<path d="M1.5 9h4.5v13.5h-4.5v-13.5z"></path>
<path d="M6 5.25c0 1.243-1.007 2.25-2.25 2.25s-2.25-1.007-2.25-2.25c0-1.243 1.007-2.25 2.25-2.25s2.25 1.007 2.25 2.25z"></path>
</svg>

<svg xmlns="http://www.w3.org/2000/svg" width="24" height="24"><path d="M9 9h4.151v2.128h.059C13.787 10.092 15.201 9 17.308 9c4.382 0 5.192 2.728 5.192 6.275V22.5h-4.327v-6.405c0-1.528-.031-3.493-2.251-3.493-2.253 0-2.597 1.664-2.597 3.382V22.5H9V9zM1.5 9H6v13.5H1.5V9zM6 5.25a2.25 2.25 0 1 1-4.5 0 2.25 2.25 0 0 1 4.5 0z"/></svg>
